X: 1
T: Fox On The Town, The
M: 4/4
L: 1/8
R: reel
K: Gmaj
ef|gedg edBA|~G3B dG (3Bcd|gedg ~e3f|g2fg efga|
beed edBA|~G3B dG (3Bcd|efgb af~f2|gbaf g2:|
|:ga|bege Bege|dB~B2 dega|bege Bege|degb ~a3b|
g2fg edBA|~G3B dG (3Bcd|efgb af~f2|gbaf g2:|
Some of the flute variations I like are in bar 3 of the B-part where it goes |~b3z Bege| or |{f}~g3b {f}~g3b|.
